X:1
T:Sonata No.8
T:Sonata No.8
T:KV.310.
T:Mozart 
%%score { ( 1 4 5 ) | ( 2 3 ) }
L:1/8
Q:1/4=117
M:4/4
K:C
V:1 treble nm="Piano" snm="Pno."
V:4 treble 
V:5 treble 
V:2 bass 
V:3 bass 
V:1
"^Allegro maestoso"!f!!mf!!<(!{/^d} e2!<)!!f! e>e e2 c>A |{A} ^G2 G4 d>B | e2 e>e ef/e/ d/c/B/A/ | %3
{A} ^G2 G4 d>B | [ce]>[Ac] [ce]2 z!p! .[Ac].[Bd].[ce] | [^ce]2 [df] z z .[GB].[A=c].[Bd] | %6
 [B^d]2 [ce] z z!<(! .[FA].[^GB].[Ac] | c>Bf>=d c>ed>B!<)! |!f!{/^d} e2 e>e ef/e/ =d/c/B/A/ | %9
 A^G G2- G>Gd>B | e2 e>e ^d/e/f/e/ =d/c/B/A/ | c_B B2- B>eg>._b |!mf! (_ba).f.d (d^c).e.g | %13
 g^f z =f z ^d z e |!p! e=d d3 e/d/ d/c/B/c/ |!mp![Q:1/4=120] B2!f! g>g g2 g2 | c'3 _b/_a/ g2 ^f2 | %17
 [=Bg]2!p! g>g g2 g2 | c'3!<(! _b/_a/ g2!<)!!mf! ^f2 |!f! g/d/=B/d/ g/_e/c/e/ g/d/B/d/ g/e/c/e/ | %20
 g/d/B/d/ g/_e/c/e/ BcBc | B2 !arpeggio![GBdg]2!p! z[Q:1/4=115] .g.a.b | %22
[Q:1/4=120] c'/d'/b/d'/ c'/d'/b/d'/ c'/d'/b/c'/ a/b/g/a/ | f/g/=e/g/ f/g/e/g/ f/g/e/f/ d/e/c/d/ | %24
 B/c/A/c/ B/c/A/c/ B/c/A/B/ G/A/F/G/ |!<(! E/G/F/E/ F/G/A/B/ c/d/c/B/ c/d/e/f/ | %26
 g/a/e/a/ g/a/e/a/ g/c'/b/c'/ d'/c'/b/!<)!c'/ |!mp! b/a/^g/a/ =g/=f/e/f/ e/d/^c/d/ c/d/e/f/ | %28
 a/g/^f/g/ =f/e/d/e/ d/=c/B/c/ B/c/d/e/ | f/g/e/f/ d/e/c/d/ B/c/A/B/ G/A/F/G/ | %30
 E/G/F/E/ F/G/A/B/ c/d/e/d/ c/_B/A/^G/ | A/=B/c/B/ c/^c/d/c/ d/e/f/e/ f/^g/a/g/ | %32
 a/b/=c'/b/ c'/b/c'/b/ d'/c'/b/a/ b/a/g/f/ | e/g/a/g/ f/e/d/c/!<(! !trill(!Td4{cd}!<)! | %34
!mf! z/ c'/b/a/ g/a/^f/a/ g/a/f/a/ g/a/=f/g/ | e/c'/b/a/ g/a/^f/a/ g/a/f/a/ g/a/=f/g/ | %36
 e/f/d/e/ c/d/B/c/ A/B/G/A/ F/G/E/F/ | DE/F/ G/A/B/c/ d/e/f/g/ a/b/c'/d'/ | %38
 e'/c'/b/c'/ b/a/g/f/ e2 !trill(!Td2{cd} |!p!!mf! c2 z2 z2 .[db].g | .[ec']2 z2 z2 .[db].g | %41
"_cresc." [ec']2 Tg3/2^f/4g/4 c'4 | c'2 d'>e'!f! f'2 Tb3/2a/4b/4 | %43
!<(! c'/b/c'/g/ b/a/g/f/ e/f/g/e/ d/e/f/!<)!d/ |!ff! c2 [ce]>[ce] [ce]2 [ce]>[ce] | %45
 [cd]2 [cd]>[cd] [Bd]2 [Bg]>[Bg] | [ce]2 [cec']>[cec'] [cec']2 [cec']>[cec'] | %47
!>(! [dac']2 [dac']>[dac'] [dgb]2 [dgb]>[dgb] | %48
[Q:1/4=100] !arpeggio![egc']2!>)![Q:1/4=85] !arpeggio![ceg]2[Q:1/4=60]!mf! !arpeggio![Gce]2[Q:1/4=115] z2 :: %49
!mf!{/^f} g2 g>g g2 e>c |{c} B2 B4 f>d | g2 g>g ga/g/ f/e/d/c/ |{c} _B2 B3 _deg | %53
[Q:1/4=120] _bgec[Q:1/4=115]!<(! _B_de!<)!g |[Q:1/4=120] _bgec[Q:1/4=115]!<(! _B^ce!<)!g | %55
!f![Q:1/4=120]!>(! _b/g/e/=c/ g/e/c/_B/ e/c/B/G/ c/B/G/E/ | %56
 ^A/G/E/C/ G/E/C/=B,/ .^A,/G/^F/G/ =A/G/F/!>)!E/ |!ff! [^DB]2 [DB]>[DB] [DB]2 [DB]2 | %58
!>(! B>B=A>!>)!^G!mf!!<(! c>^de>!<)!!f!c |!ff!!>(! A>A=G>^F!>)!!mf!!<(! B>^de>!<)!!f!B | %60
!ff!!>(! G>G^F>!>)!!mf!E!>(! A>B=c>!>)!!mp!A |!mp!!pp! E2 [^Ge]>[Ge] [Ge]2 [Ge]2 | %62
!>(! e>e=d>!>)!^c!<(! f>^ga>!<)!!mp!f |!>(! d>d=c>!>)!B!<(! e>^ga>!<)!!mp!e | %64
!>(! c>cB>!>)!A!<(! d>e=f>!<)!!f!d |!ff! A2 [^ca]>[ca] [ca]2 [ca]2 | %66
!>(! a>!>)!a=g>^f!f!!<(! b>^c'd'>!<)!!ff!_b |!>(! g>!>)!g=f>e!f!!<(! a>^c'd'>!<)!!ff!a | %68
!>(! f>!>)!fe>d!f! g>a_b>g |!ff! d2 z z/ d/ f2 Tf3/2e/4f/4 | c2 z z/ c/ e2 Te3/2d/4e/4 | %71
 B2 z z/ B/ d2 Td3/2c/4d/4 | c/A/c/e/ E/=G/B/e/ E/A/c/e/ ^D/A/c/^d/ | %73
!f! e/E/^G/B/ e/G/B/e/ ^g/B/e/g/ b/g/e/=d/ | c/A/c/e/ a/c/e/a/ c'/a/e/c/ a/^f/c/A/ | %75
 ^G/E/G/B/ e/G/B/e/ ^g/B/e/g/ b/g/e/=d/ | c/A/c/e/ a/c/e/a/ c'/a/e/c/ a/^f/c/A/ | %77
 ^G/B/e/G/ A/B/^d/A/ G/B/e/G/ A/B/d/A/ | %78
 [^GBe] E/^D/ E/F/^F/=G/ ^G/A/[Q:1/4=110]_B/=B/[Q:1/4=100] c/^c/[Q:1/4=75]=d/^d/ | %79
[Q:1/4=117]{/^d} e2 e>e e2 c>A |{A} ^G2 G4 d>B | e2 e>e ef/e/ d/c/B/A/ |{A} ^G2 G4 d>B | %83
 [ce]>[Ac] [ce]2 z!p! .[Ac].[Bd].[ce] | [^ce]2 [df] z z .[GB].[A=c].[Bd] | %85
 [B^d]2 [ce] z z .[FA].[^GB].[Ac] |!<(! c>Bf>=d c>ed>!<)!!f!B | %87
!f![Q:1/4=122]!ff! c/a/c/a/ c/a/c/a/ c/a/c/a/ c/a/c/a/ | B/a/B/a/ B/a/B/a/ B/=g/B/g/ _B/g/B/g/ | %89
 A/g/A/g/ A/g/A/g/ A/f/A/f/ A/f/A/f/ | G/f/G/f/ G/f/G/f/ G/e/G/e/ G/e/G/e/ | %91
 F/e/F/e/ F/e/F/e/!>(! F/d/F/d/ F/d/F/d/ | %92
 E/d/E/d/ E/c/E/c/[Q:1/4=115] E/B/E/B/ [EB]/[Q:1/4=100]e/[EB]/!>)![Q:1/4=70]!mp!e/ | %93
[Q:1/4=113] e.^d z =d"_cresc." d.^c z =c |!p! ^AB z ^c z d z[Q:1/4=100] e | %95
[Q:1/4=107] g f2[Q:1/4=113] e d=cBA |!f![Q:1/4=120] [^GBe]2 e>e e2 e2 | a3 g/=f/ e2 ^d2 | %98
 !arpeggio![^GBe]2!p! e>e e2 e2 | a3!<(! g/=f/ e2!<)!!mf! ^d2 | %100
!f! e/B/^G/B/ e/c/A/c/ e/B/G/B/ e/c/A/c/ | e/B/^G/B/ e/c/A/c/ B/e/c/e/ B/e/c/e/ | %102
 B2!>(! !arpeggio![E^GBe]2 z!>)!!p! .e.^f.^g |[Q:1/4=120] a/b/^g/b/ a/b/g/b/ a/b/=g/a/ =f/g/e/f/ | %104
 d/e/^c/e/ d/e/c/e/ d/e/=c/d/ B/c/A/B/ | ^G/B/A/B/ G/B/A/B/ G/B/F/B/ E/B/D/B/ | %106
!<(! C/E/^D/E/ F/E/^G/E/ A/E/B/E/ c/E/=d/E/ | e/f/^d/f/ e/f/d/f/ e/a/^g/a/ b/a/g/a/!<)! | %108
!mp! =g/f/e/f/ e/=d/^c/d/ =c/_B/A/B/ A/B/c/d/ | f/e/^d/e/ =d/c/=B/c/ B/A/^G/A/ G/A/B/c/ | %110
 d/f/c/f/ B/f/A/f/ ^G/B/F/B/ E/B/D/B/ | C/c/B/c/ d/c/B/A/ ^G/d/^c/d/ e/d/=c/B/ | %112
 A/B/c/B/ c/^d/e/d/ e/^g/a/g/ a/=g/f/e/ | f/g/a/f/ =d/e/f/d/ B/c/d/B/ e/f/d/B/ | %114
 ^d/e/f/e/ =d/c/B/A/!<(! !trill(!TB4{AB}!<)! |!p!!mf! z/ a/g/f/ e/f/^d/f/ e/f/d/f/ e/f/=d/e/ | %116
 c/a/g/f/ e/f/^d/f/ e/f/d/f/ e/f/=d/e/ | c/d/e/d/ c/B/A/^G/!<(! A/B/c/B/ A/=G/F/E/ | %118
 D/_B,/F/D/ _B/F/d/B/ f/d/^g/f/ =b/g/d'/b/!<)! | %119
!f!!>(! e'/c'/a/e/ =g/f/e/!>)!d/!mp! c2 !trill(!TB2{AB} |!p! A2 z2 z2 .[B^g].e | %121
!<(! [ca]2 z2 z2 .[B^g].e!<)! |!mf! [ca]2 Te3/2d/4e/4 a4 |!mf! a2"_cresc." b>c' d'2 e2 | %124
!f!!>(! a/^g/a/e/ =g/f/e/d/ c/d/e/c/[Q:1/4=112] B/c/d/[Q:1/4=80]B/!>)! | %125
[Q:1/4=125]!ff! d'/f'/b/d'/ ^g/b/f/g/ d/f/B/d/ ^G/B/F/G/ |!>(! [c^d^fac']8!>)! | %127
!f! z/!>(! a/e/c/ A/E/C/A,/ E2 !>![E^GBe]2!>)! |[Q:1/4=117]!mf! !^!A2 [Ac]>[Ac] [Ac]2 [Ac]>[Ac] | %129
 [AB]2 [AB]>[AB] [^GBe]2 [GBe]>[GBe] | [Ac]2 [Aca]>[Aca] [Aca]2 [Aca]>[Aca] | %131
 [Bfa]2 [Bfa]>[Bfa] [Be^g]2!>(! [Beg]>[Beg] | %132
[Q:1/4=105] !wedge![cea]2[Q:1/4=87] .[Ace]2!>)![Q:1/4=70]!mp! [EAc]2[Q:1/4=115] z2 :| %133
V:2
 [A,CE][A,CE][A,CE][A,CE] [A,CE][A,CE][A,CE][A,CE] | %1
 [A,B,DE][A,B,DE][A,B,DE][A,B,DE] [A,B,DE][A,B,DE][A,B,DE][A,B,DE] | %2
 [A,CE][A,CE][A,CE][A,CE] [A,CE][A,CE][A,CE][A,CE] | %3
 [A,B,DE][A,B,DE][A,B,DE][A,B,DE] [A,B,DE][A,B,DE][A,B,DE][A,B,DE] | [A,CE] A,E,C, A,,2 z2 | %5
 z2 [F,A,C]2 [G,B,] z z2 | z2 [E,G,B,]2 [F,A,] z z2 | z2 [D,F,B,-]2 [E,A,C]2 [E,^G,B,]2 | %8
 [A,CE][A,CE][A,CE][A,CE] [A,CE][A,CE][A,CE][A,CE] | %9
 [A,B,DF][A,B,DF][A,B,DF][A,B,DF] [A,B,DF][A,B,DF][A,B,DF][A,B,DF] | %10
 [A,CE][A,CE][A,CE][A,CE] [A,CE][A,CE][A,CE][A,CE] | %11
 [=G,_A,CE][G,A,CE][G,A,CE][G,A,CE] [G,A,CE][G,A,CE][G,A,CE][G,A,CE] | %12
 [F,CF][F,CF][F,A,D][F,A,D] [E,G,A,][E,G,A,][E,A,^C][E,A,C] | %13
 [D,A,D]2 [=B,,D,G,]2 [=C,G,]2 [A,C]2 | F,A,F,A, F,A,^F,A, | %15
 G,/D/B,/D/ G,/D/B,/D/ G,/_E/C/E/ G,/=F/D/F/ | G,/_E/C/E/ G,/E/C/E/ G,/E/C/E/ G,/E/C/E/ | %17
 G,/D/B,/D/ G,/D/B,/D/ G,/_E/C/E/ G,/=F/D/F/ | G,/_E/C/E/ G,/E/C/E/ G,/E/C/E/ G,/E/C/E/ | %19
 [G,B,D]2 z [C,C] [G,,G,]2 z [C,C] | [G,,G,]2 z [C,C] [G,,G,][C,C][G,,G,][G,,C] | %21
 [G,,G,]2 [G,,,G,,]2 [G,,,G,,]2 z2 |[K:treble] [=EG][EG][EG][EG] [EG]2 z2 | %23
 [DA][DA][DA][DA] [DA]2 z2 |[K:bass] [G,DF][G,DF][G,DF][G,DF] [G,DF]2 z2 | C2 z2 z4 | %26
 [E,C][E,C][E,C][E,C] [E,C]2 z2 | z2 A,2 D4- | D2 G,2 C4- | C2 A,2 G,4- | G,2 G,4 C2- | C2 z2 z4 | %32
 F,/D/A,/D/ F,/D/A,/D/ F,/D/A,/D/ F,/D/A,/D/ | G,/E/C/E/ G,/E/C/E/ G,/F/B,/F/ G,/F/B,/F/ | %34
 [CE]2 z2 z2[K:treble] .B.G | c2 z2 z2 .B.G | c2 z2[K:bass] E,4 | A,4 [G,B,]4 | C2 C4 B,2 | %39
[K:treble] z/!mp! c/B/A/ G/A/^F/A/ G/A/F/A/ G/A/=F/G/ | E/c/B/A/ G/A/^F/A/ G/A/F/A/ G/A/=F/G/ | %41
[K:bass] E/F/D/E/ C/D/B,/C/ A,/B,/G,/A,/ F,/G,/E,/F,/ | %42
 D,/E,/C,/D,/ B,,/C,/A,,/B,,/ G,,/A,,/F,,/G,,/ E,,/F,,/D,,/F,,/ | E,, z F,, z G,, z G,,, z | %44
 C/D/E/D/ C/B,/A,/^G,/ A,/B,/C/B,/ A,/=G,/F,/E,/ | %45
 F,/G,/A,/G,/ F,/D,/E,/F,/ G,/^F,/G,/F,/ G,/=F,/E,/D,/ | %46
 C,/D,/E,/D,/ C,/B,,/A,,/^G,,/ A,,/B,,/C,/B,,/ A,,/=G,,/F,,/E,,/ | %47
 F,,/G,,/A,,/G,,/ F,,/D,,/E,,/F,,/ G,,/^F,,/G,,/F,,/ G,,/=F,,/E,,/D,,/ | %48
 C,,2 [C,,C,]2 [C,,C,]2 z2 ::[K:treble] [CEG][CEG][CEG][CEG] [CEG][CEG][CEG][CEG] | %50
 [CDFG][CDFG][CDFG][CDFG] [CDFG][CDFG][CDFG][CDFG] | [CEG][CEG][CEG][CEG] [CEG][CEG][CEG][CEG] | %52
 [_DEG][DEG][DEG][DEG] [DEG][DEG][DEG][DEG] | [CEG][CEG][CEG][CEG] [_DEG][DEG][DEG][DEG] | %54
 [CEG][CEG][CEG][CEG] [^CEG][CEG][CEG][CEG] | [=CEG]2 z2 z4 |[K:bass] [C,,E,,G,,^A,,]8 | %57
 B,,,/B,,/^A,,/B,,/ A,,/B,,/A,,/B,,/ B,,,/B,,/A,,/B,,/ A,,/B,,/A,,/B,,/ | %58
 B,,,/B,,/^A,,/B,,/ A,,/B,,/A,,/B,,/ B,,,/B,,/A,,/B,,/ A,,/B,,/A,,/B,,/ | %59
 B,,,/B,,/^A,,/B,,/ A,,/B,,/A,,/B,,/ B,,,/B,,/A,,/B,,/ A,,/B,,/A,,/B,,/ | %60
 B,,,/B,,/^A,,/B,,/ A,,/B,,/A,,/B,,/ B,,,/B,,/A,,/B,,/ A,,/B,,/A,,/B,,/ | %61
 E,,/E,/^D,/E,/ D,/E,/D,/E,/ E,,/E,/D,/E,/ D,/E,/D,/E,/ | %62
 E,,/E,/^D,/E,/ D,/E,/D,/E,/ E,,/E,/D,/E,/ D,/E,/D,/E,/ | %63
 E,,/E,/^D,/E,/ D,/E,/D,/E,/ E,,/E,/D,/E,/ D,/E,/D,/E,/ | %64
 E,,/E,/^D,/E,/ D,/E,/D,/E,/ E,,/E,/D,/E,/ D,/E,/D,/E,/ | %65
 A,,/A,/^G,/A,/ G,/A,/G,/A,/ A,,/A,/G,/A,/ G,/A,/G,/A,/ | %66
 A,,/A,/^G,/A,/ G,/A,/G,/A,/ A,,/A,/G,/A,/ G,/A,/G,/A,/ | %67
 A,,/A,/^G,/A,/ G,/A,/G,/A,/ A,,/A,/G,/A,/ G,/A,/G,/A,/ | %68
 A,,/A,/^G,/A,/ G,/A,/G,/A,/ A,,/A,/G,/A,/ G,/A,/G,/A,/ | %69
 D,/F,/A,/D/ F/E/D/=C/ =B,/C/D/C/ B,/=G,/A,/B,/ | C/B,/C/D/ E/D/C/B,/ A,/B,/C/B,/ A,/F,/G,/A,/ | %71
 B,/A,/B,/C/ D/C/B,/A,/ ^G,/A,/B,/A,/ G,/E,/^F,/G,/ | A,2 [=G,,=G,]2 [^F,,^F,]2 [=F,,=F,]2 | %73
 [E,,E,]2 z z/ !>!E,/ !>!E2 T^G,3/2^F,/4G,/4 | !>!G,2 z z/ !>!G,,/ !>!G,2 T^D,3/2^C,/4D,/4 | %75
 !>!E,2 z z/ !>!E,/ !>!E2 T^G,3/2^F,/4G,/4 | !>!A,2 z z/ !>!A,,/ !>!A,2 T^D,3/2^C,/4D,/4 | %77
 E,2 [=F,,=F,]2 [E,,E,]2 [F,,F,]2 | [E,,E,]2 z2 z4 | %79
 [A,CE][A,CE][A,CE][A,CE] [A,CE][A,CE][A,CE][A,CE] | %80
 [A,B,DE][A,B,DE][A,B,DE][A,B,DE] [A,B,DE][A,B,DE][A,B,DE][A,B,DE] | %81
 [A,CE][A,CE][A,CE][A,CE] [A,CE][A,CE][A,CE][A,CE] | %82
 [A,B,DE][A,B,DE][A,B,DE][A,B,DE] [A,B,DE][A,B,DE][A,B,DE][A,B,DE] | [A,CE] A,E,C, A,,2 z2 | %84
 z2 [F,A,C]2 [G,B,] z z2 | z2 [E,G,B,]2 [F,A,] z z2 | z2 [D,F,B,-]2 [E,A,C]2 [E,^G,B,]2 | %87
 [A,,A,]2 A,>A, A,2 F,>^D, | F,E, E,4 =G,>E, | F,2 F,>F, F,G,/F,/ E,/D,/C,/B,,/ | %90
 D,C, C,2- C,>G,E,>^C, | E,D,.D,.D, D,E,/D,/ =C,/B,,/A,,/^G,,/ | B,,A,,.A,,.A,, A,,=G,,G,,F, | %93
 .^F,2 .=F,2 .E,2 .E,2 | .D,2 .E,2 .F,2 .^C,2 | D,2 E,2 F,2 ^D,2 | %96
 E,/B,/^G,/B,/ E,/B,/G,/B,/ E,/C/A,/C/ E,/=D/B,/D/ | E,/C/A,/C/ E,/C/A,/C/ E,/C/A,/C/ E,/C/A,/C/ | %98
 E,/B,/^G,/B,/ E,/B,/G,/B,/ E,/C/A,/C/ E,/=D/B,/D/ | E,/C/A,/C/ E,/C/A,/C/ E,/C/A,/C/ E,/C/A,/C/ | %100
 [E,^G,B,]2 z [A,,A,] [E,,E,]2 z [A,,A,] | [E,,E,]2 z [A,,A,] [E,,E,][A,,A,][E,,E,][A,,A,] | %102
 [E,,E,]2 [E,,E,]2 [E,,E,]2 z2 |[K:treble] [CE][DF][CE][DF] [CE]2 z2 | [FA][G_B][FA][GB] [FA]2 z2 | %105
[K:bass] [E,=B,D][F,B,D][E,B,D][F,B,D] [E,B,D]2 z2 | [A,,A,]2 z2 z4 | %107
[K:treble] [CA][CA][CA][CA] [CA]2 z2 |[K:bass] z2 F,2 _B,4- | B,2 ^G,2 A,4- | A,2 D4 =B,2 | %111
 A,2 E,4 [E,^G,]2 | [C,E,A,]2 z2 z2 [^C,E,A,]2 | %113
 D,/A,/E,/A,/ D,/A,/F,/A,/ D,/B,/F,/B,/ D,/B,/F,/B,/ | %114
 E,/C/A,/C/ E,/C/A,/C/ E,/D/^G,/D/ E,/D/G,/D/ | [A,C]2 z2 z2[K:treble] .^G.E | A2 z2 z2 .^G.E | %117
 A2 z2[K:bass] [C,E,A,]4 | [D,F,]4 [D,F,^G,=B,]4 | [C,E,A,]2 A,4 ^G,2 | %120
[K:treble] z/ A/=G/F/ E/F/^D/F/ E/F/D/F/ E/F/=D/E/ | C/A/=G/F/ E/F/^D/F/ E/F/D/F/ E/F/=D/E/ | %122
[K:bass] C/D/B,/C/ A,/B,/G,/A,/ F,/G,/E,/F,/ D,/E,/C,/D,/ | %123
 B,,/C,/A,,/B,,/ ^G,,/A,,/^F,,/G,,/ E,,/=F,,/D,,/E,,/ C,,/D,,/B,,,/D,,/ | C,, z D,, z E,, z E,, z | %125
 [D,F,^G,B,]8 | C/^D/A,/C/ ^F,/A,/^D,/F,/ C,/D,/A,,/C,/ ^F,,/A,,/^D,,/F,,/ | %127
 E,,2 z/ E,/C,/A,,/ E,,2 E,2 | A,/B,/C/B,/ A,/=G,/=F,/E,/ F,/G,/A,/G,/ F,/E,/D,/C,/ | %129
 D,/E,/F,/E,/ D,/B,,/C,/D,/ E,/^D,/E,/D,/ E,/=D,/C,/B,,/ | %130
 A,,/B,,/C,/B,,/ A,,/G,,/F,,/E,,/ F,,/G,,/A,,/G,,/ F,,/E,,/D,,/C,,/ | %131
 D,,/E,,/F,,/E,,/ D,,/B,,,/C,,/D,,/ E,,/^D,,/E,,/D,,/ E,,/=D,,/C,,/B,,,/ | %132
 !wedge!A,,,2 .[A,,,A,,]2 [A,,,A,,]2 z2 :| %133
V:3
 x8 | x8 | x8 | x8 | x8 | x2 =D2 D x3 | x2 C2 C x3 | x8 | x8 | x8 | x8 | x8 | x8 | x8 | x8 | x8 | %16
 x8 | x8 | x8 | x8 | x8 | x8 |[K:treble] x8 | x8 |[K:bass] x8 | x8 | x8 | F,6 F,2 | E,6 E,2 | %29
 D,2 F,2 G,2 B,,2 | C,2 D,2 E,4 | F,2 x6 | x8 | x8 | x6[K:treble] x2 | x8 | x4[K:bass] C2 G,2 | %37
 F,4 F,4 | [E,G,]2 F,2 G,2 G,2 |[K:treble] x8 | x8 |[K:bass] x8 | x8 | x8 | x8 | x8 | x8 | x8 | %48
 x8 ::[K:treble] x8 | x8 | x8 | x8 | x8 | x8 | x8 |[K:bass] x8 | x8 | x8 | x8 | x8 | x8 | x8 | x8 | %64
 x8 | x8 | x8 | x8 | x8 | x8 | x8 | x8 | x8 | x8 | x8 | x8 | x8 | x8 | x8 | x8 | x8 | x8 | x8 | %83
 x8 | x2 =D2 D x3 | x2 C2 C x3 | x8 | x8 | x8 | x8 | x8 | x8 | x8 | x8 | x8 | x8 | x8 | x8 | x8 | %99
 x8 | x8 | x8 | x8 |[K:treble] x8 | x8 |[K:bass] x8 | x8 |[K:treble] x8 |[K:bass] D,6 D,2 | %109
 C,6 C,2 | =B,,2 F,2 E,2 ^G,2 | A,2 A,,2 B,,2 D,2 | x8 | x8 | x8 | x6[K:treble] x2 | x8 | %117
 x4[K:bass] x4 | x8 | x2 D,2 E,2 E,2 |[K:treble] x8 | x8 |[K:bass] x8 | x8 | x8 | x8 | x8 | x8 | %128
 x8 | x8 | x8 | x8 | x8 :| %133
V:4
 x8 | x8 | x8 | x8 | x8 | x8 | x8 | x8 | x8 | x8 | x8 | x8 | x8 | x8 | x8 | x8 | c8 | x8 | c8 | %19
 x8 | x4 d/g/_e/g/ d/g/e/g/ | d2 x6 | x8 | x8 | x8 | x8 | x8 | x8 | x8 | x8 | x8 | x8 | x8 | x8 | %34
 x8 | x8 | x8 | x8 | x8 | x8 | x8 | x2 z2 z2 Te3/2d/4e/4 | =f4 x2 g2 | %43
 g/ x3/2 d x c/ x3/2 B/ x3/2 | x8 | x8 | x8 | x8 | x8 :: x8 | x8 | x8 | x8 | x8 | x8 | x8 | x8 | %57
 x6 B2 | E4 ^F4 | ^D4 E4 | ^C4 ^D4 | !>!^G2 x4 e2 | A4 B4 | ^G4 A4 | ^F4 ^G4 | ^c2 x4 a2 | d4 e4 | %67
 ^c4 d4 | _B4 ^c4 | f2 x3/2 f/ d'2 d2 | e2 x3/2 e/ c'2 c2 | d2 x3/2 d/ b2 B2 | x8 | x8 | x8 | x8 | %76
 x8 | x8 | x8 | x8 | x8 | x8 | x8 | x8 | x8 | x8 | x8 | x8 | x8 | x8 | x8 | x8 | x8 | %93
 A2 x A A2 x A | =A2 x A x A x A | A6 ^F2 | x8 | A8 | x8 | A8 | x8 | x4 ^GAGA | ^G2 x6 | x8 | x8 | %105
 x8 | x8 | x8 | x8 | x8 | x8 | x8 | x8 | x8 | x8 | x8 | x8 | x8 | x8 | x8 | x8 | x8 | %122
 x2 z2 z2 Tc3/2B/4c/4 | d6 T^g3/2^f/4g/4 | e/ x3/2 B x A/ x3/2 ^G/ x3/2 | x8 | x8 | x8 | x8 | x8 | %130
 x8 | x8 | x8 :| %133
V:5
 x8 | x8 | x8 | x8 | x8 | x8 | x8 | x8 | x8 | x8 | x8 | x8 | x8 | x8 | x8 | x8 | x8 | x8 | x8 | %19
 x8 | x8 | x8 | x8 | x8 | x8 | x8 | x8 | x8 | x8 | x8 | x8 | x8 | x8 | x8 | x8 | x8 | x8 | x8 | %38
 x8 | x8 | x8 | x8 | x8 | x8 | x8 | x8 | x8 | x8 | x8 :: x8 | x8 | x8 | x8 | x8 | x8 | x8 | x8 | %57
 x8 | =c4- A4 | B4- G4 | A4- ^F4 | x8 | =f4- d4 | e4- c4 | d4- B4 | x8 | _b4- g4 | a4- f4 | %68
 g4- e4 | x8 | x8 | x8 | x8 | x8 | x8 | x8 | x8 | x8 | x8 | x8 | x8 | x8 | x8 | x8 | x8 | x8 | x8 | %87
 x8 | x8 | x8 | x8 | x8 | x8 | x8 | x8 | x8 | x8 | x8 | x8 | x8 | x8 | x8 | x8 | x8 | x8 | x8 | %106
 x8 | x8 | x8 | x8 | x8 | x8 | x8 | x8 | x8 | x8 | x8 | x8 | x8 | x8 | x8 | x8 | x8 | x8 | x8 | %125
 x8 | x8 | x8 | x8 | x8 | x8 | x8 | x8 :| %133

